X:1
T:Mobile Bay
M:2/4
L:1/8
K:E
 B,/2B,/2| E/2 E3/2 F3/2 F/2| GE B2| E/2E/2 F G/2G/2 E| FB| E3/2 B,/2|\
 E/2 E3/2 F/2 F3/2| GE B2| E/2E/2 F G/2G/2 E| FB| E2| c2B-e| cA B2|\
 E/2E/2 F G/2G/2 E| FB| E z| c2B-e| cA B2| E/2E/2 F G/2G/2 E| FB||\
 E||
